src/_icons/brightness-2.svg

---
category: Photos
---
<svg>
  <circle cx="12" cy="12" r="3" />
  <path d="M6 6h3.5l2.5 -2.5l2.5 2.5h3.5v3.5l2.5 2.5l-2.5 2.5v3.5h-3.5l-2.5 2.5l-2.5 -2.5h-3.5v-3.5l-2.5 -2.5l2.5 -2.5z" />
</svg>

---
category: Photos
---
<svg>
  <circle cx="12" cy="12" r="3" />
  <path d="M6 6h3.5L12 3.5 14.5 6H18v3.5l2.5 2.5-2.5 2.5V18h-3.5L12 20.5 9.5 18H6v-3.5L3.5 12 6 9.5z" />
</svg>
